X:41
T: Huanghe li piaoqi yi zhi chuan
N: C0053
O: China,Ningxia, Yinchuan
S: I, 188]
N: vgl. Kommentar zu Nr. 187
R: Wuge, Hanchuan diao]
M: 2/4
L: 1/16
K: F
c8 | z2f2B2cc | f2dcB2G2 | z2G2G2C2 | F2EDC4 |
z2c2F2G2 | c2GFEDC2 | F4GFED | C8 |
z2c2F2G2 | c2GFEDC2 | F4GFED | C8

@@@ Tune index: 6042
